icons/aavegotchi.svg

<svg xmlns="http://www.w3.org/2000/svg" width="750" height="750" fill="none">
  <path fill="url(#aavegotchi_svg__a)" d="M375 750c207.107 0 375-167.893 375-375S582.107 0 375 0 0 167.893 0 375s167.893 375 375 375"/>
  <path fill="#000" d="M607.578 246.646c-18.64-19.025-43.105-30.95-69.315-33.785-26.209-2.834-52.579 3.593-74.709 18.209 23.973 27.783 36.689 63.841 35.566 100.85s-16 72.194-41.61 98.409l-69.771 71.239 23.413 23.905 9.581-9.783 23.955 24.46-9.58 9.783 19.166 19.568 153.308-156.53c21.599-22.058 33.733-51.972 33.732-83.164 0-31.191-12.135-61.104-33.736-83.161" opacity=".25"/>
  <path fill="#000" d="M438.121 244.235c-10.695-10.92-23.392-19.583-37.366-25.493a113.1 113.1 0 0 0-44.078-8.952 113.1 113.1 0 0 0-44.078 8.952c-13.974 5.91-26.671 14.573-37.367 25.493L121.924 400.767l19.166 19.563 9.58-9.782 23.957 24.461-9.581 9.781 23.956 24.46 9.581-9.783 28.746 29.352-9.58 9.782 23.957 24.46 9.581-9.783 23.956 24.456-9.581 9.783 19.166 19.568 153.308-156.532c21.596-22.059 33.726-51.973 33.724-83.162s-12.139-61.101-33.739-83.156" opacity=".25"/>
  <path fill="#D7D7D7" d="M594.331 233.124c-18.639-19.026-43.104-30.951-69.314-33.785-26.209-2.835-52.579 3.592-74.708 18.208 23.972 27.783 36.688 63.842 35.565 100.851s-16.001 72.194-41.611 98.409l-69.771 71.238 23.413 23.905 9.581-9.781 23.956 24.458-9.581 9.782 19.166 19.569 153.309-156.531c21.599-22.057 33.733-51.972 33.732-83.163s-12.136-61.104-33.737-83.16"/>
  <path fill="#fff" d="M594.331 233.124c-18.639-19.026-43.104-30.951-69.314-33.785-26.209-2.835-52.579 3.592-74.708 18.208 23.972 27.783 36.688 63.842 35.565 100.851s-16.001 72.194-41.611 98.409l-69.771 71.237 10.171 10.386 9.58-9.783 37.199 37.98-9.581 9.782 5.919 6.044 153.31-156.531c44.981-45.932 58.222-106.872 13.241-152.798"/>
  <path fill="#D7D7D7" d="M424.894 230.71c-10.695-10.921-23.392-19.583-37.367-25.493a113.1 113.1 0 0 0-44.077-8.952 113.1 113.1 0 0 0-44.078 8.952c-13.974 5.91-26.672 14.572-37.367 25.493L108.696 387.241l19.161 19.569 9.581-9.783 23.956 24.462-9.581 9.782 23.957 24.459 9.58-9.781 28.747 29.351-9.581 9.781 23.957 24.46 9.58-9.783 23.957 24.46-9.581 9.783 19.166 19.568 153.308-156.531c21.598-22.059 33.73-51.975 33.728-83.166s-12.137-61.105-33.737-83.162"/>
  <path fill="#fff" d="M424.894 230.71c-10.695-10.921-23.392-19.583-37.367-25.493a113.1 113.1 0 0 0-44.077-8.952 113.1 113.1 0 0 0-44.078 8.952c-13.974 5.91-26.671 14.572-37.367 25.493L108.696 387.241l5.919 6.043 9.581-9.782 37.198 37.981-9.581 9.783 10.709 10.934 9.581-9.782 41.989 42.871-9.58 9.782 10.709 10.935 9.58-9.783L262 524.205l-9.581 9.782 5.919 6.042 153.309-156.531c44.986-45.923 58.229-106.862 13.247-152.788"/>
  <defs>
    <linearGradient id="aavegotchi_svg__a" x1="267.426" x2="490.021" y1="36.662" y2="736.76" gradientUnits="userSpaceOnUse">
      <stop offset=".157" stop-color="#FF1DFF"/>
      <stop offset="1" stop-color="#672EEB"/>
    </linearGradient>
  </defs>
</svg>

<svg width="750" height="750" viewBox="0 0 750 750" fill="none" xmlns="http://www.w3.org/2000/svg">
<path d="M375 750C582.107 750 750 582.107 750 375C750 167.893 582.107 0 375 0C167.893 0 0 167.893 0 375C0 582.107 167.893 750 375 750Z" fill="url(#paint0_linear_1_253)"/>
<path opacity="0.25" d="M607.578 246.646C588.938 227.621 564.473 215.696 538.263 212.861C512.054 210.027 485.684 216.454 463.554 231.07C487.527 258.853 500.243 294.911 499.12 331.92C497.997 368.929 483.12 404.114 457.51 430.329L387.739 501.568L411.152 525.473L420.733 515.69L444.688 540.15L435.108 549.933L454.274 569.501L607.582 412.971C629.181 390.913 641.315 360.999 641.314 329.807C641.314 298.616 629.179 268.703 607.578 246.646Z" fill="black"/>
<path opacity="0.25" d="M438.121 244.235C427.426 233.315 414.729 224.652 400.755 218.742C386.78 212.832 371.803 209.79 356.677 209.79C341.551 209.79 326.574 212.832 312.599 218.742C298.625 224.652 285.928 233.315 275.232 244.235L121.924 400.767L141.09 420.33L150.67 410.548L174.627 435.009L165.046 444.79L189.002 469.25L198.583 459.467L227.329 488.819L217.749 498.601L241.706 523.061L251.287 513.278L275.243 537.734L265.662 547.517L284.828 567.085L438.136 410.553C459.732 388.494 471.862 358.58 471.86 327.391C471.857 296.201 459.721 266.29 438.121 244.235Z" fill="black"/>
<path d="M594.331 233.124C575.692 214.098 551.227 202.173 525.017 199.339C498.808 196.504 472.438 202.931 450.309 217.547C474.281 245.33 486.997 281.389 485.874 318.398C484.751 355.407 469.873 390.592 444.263 416.807L374.492 488.045L397.905 511.95L407.486 502.169L431.442 526.627L421.861 536.409L441.027 555.978L594.336 399.447C615.935 377.39 628.069 347.475 628.068 316.284C628.067 285.093 615.932 255.18 594.331 233.124Z" fill="#D7D7D7"/>
<path d="M594.331 233.124C575.692 214.098 551.227 202.173 525.017 199.339C498.808 196.504 472.438 202.931 450.309 217.547C474.281 245.33 486.997 281.389 485.874 318.398C484.751 355.407 469.873 390.592 444.263 416.807L374.492 488.044L384.663 498.43L394.243 488.647L431.442 526.627L421.861 536.409L427.78 542.453L581.09 385.922C626.071 339.99 639.312 279.05 594.331 233.124Z" fill="white"/>
<path d="M424.894 230.71C414.199 219.789 401.502 211.127 387.527 205.217C373.553 199.307 358.576 196.265 343.45 196.265C328.324 196.265 313.347 199.307 299.372 205.217C285.398 211.127 272.7 219.789 262.005 230.71L108.696 387.241L127.857 406.81L137.438 397.027L161.394 421.489L151.813 431.271L175.77 455.73L185.35 445.949L214.097 475.3L204.516 485.081L228.473 509.541L238.053 499.758L262.01 524.218L252.429 534.001L271.595 553.569L424.903 397.038C446.501 374.979 458.633 345.063 458.631 313.872C458.63 282.681 446.494 252.767 424.894 230.71Z" fill="#D7D7D7"/>
<path d="M424.894 230.71C414.199 219.789 401.502 211.127 387.527 205.217C373.553 199.307 358.576 196.265 343.45 196.265C328.324 196.265 313.347 199.307 299.372 205.217C285.398 211.127 272.701 219.789 262.005 230.71L108.696 387.241L114.615 393.284L124.196 383.502L161.394 421.483L151.813 431.266L162.522 442.2L172.103 432.418L214.092 475.289L204.512 485.071L215.221 496.006L224.801 486.223L262 524.205L252.419 533.987L258.338 540.029L411.647 383.498C456.633 337.575 469.876 276.636 424.894 230.71Z" fill="white"/>
<defs>
<linearGradient id="paint0_linear_1_253" x1="267.426" y1="36.6624" x2="490.021" y2="736.76" gradientUnits="userSpaceOnUse">
<stop offset="0.15709" stop-color="#FF1DFF"/>
<stop offset="1" stop-color="#672EEB"/>
</linearGradient>
</defs>
</svg>
